symbols/web/breaking_news_alt_1/materialsymbolsoutlined/breaking_news_alt_1_wght600gradN25_24px.svg

<svg xmlns="http://www.w3.org/2000/svg" height="24" width="24"><path d="M6.075 16.925h5v-2h-5Zm9.85 0h2v-2h-2ZM6.075 13h5v-2h-5Zm9.85 0h2V7.075h-2Zm-9.85-3.925h5v-2h-5ZM4.3 21.25q-1.05 0-1.787-.738-.738-.737-.738-1.787V5.275q0-1.05.738-1.788Q3.25 2.75 4.3 2.75h15.4q1.05 0 1.788.737.737.738.737 1.788v13.45q0 1.05-.737 1.787-.738.738-1.788.738Zm0-2.525h15.4V5.275H4.3v13.45Zm0 0V5.275v13.45Z"/></svg>

<svg xmlns="http://www.w3.org/2000/svg" height="24" width="24"><path d="M6.075 16.925H11.075V14.925H6.075ZM6.075 13H11.075V11H6.075ZM6.075 9.075H11.075V7.075H6.075ZM15.925 16.925H17.925V14.925H15.925ZM15.925 13H17.925V7.075H15.925ZM4.3 21.25Q3.25 21.25 2.513 20.512Q1.775 19.775 1.775 18.725V5.275Q1.775 4.225 2.513 3.487Q3.25 2.75 4.3 2.75H19.7Q20.75 2.75 21.488 3.487Q22.225 4.225 22.225 5.275V18.725Q22.225 19.775 21.488 20.512Q20.75 21.25 19.7 21.25ZM4.3 18.725H19.7Q19.7 18.725 19.7 18.725Q19.7 18.725 19.7 18.725V5.275Q19.7 5.275 19.7 5.275Q19.7 5.275 19.7 5.275H4.3Q4.3 5.275 4.3 5.275Q4.3 5.275 4.3 5.275V18.725Q4.3 18.725 4.3 18.725Q4.3 18.725 4.3 18.725Z"/></svg>
